build/svg/cmd/32/insertcaptiondialog.svg

<?xml version="1.0" encoding="UTF-8" standalone="no"?>
<svg
   xmlns:dc="http://purl.org/dc/elements/1.1/"
   xmlns:cc="http://creativecommons.org/ns#"
   xmlns:rdf="http://www.w3.org/1999/02/22-rdf-syntax-ns#"
   xmlns:svg="http://www.w3.org/2000/svg"
   xmlns="http://www.w3.org/2000/svg"
   xmlns:sodipodi="http://sodipodi.sourceforge.net/DTD/sodipodi-0.dtd"
   xmlns:inkscape="http://www.inkscape.org/namespaces/inkscape"
   viewBox="0 0 32 32"
   version="1.1"
   id="svg6"
   sodipodi:docname="insertcaptiondialog.svg"
   inkscape:export-filename="/home/jupiter007/Libreoffice yaru theme fullcolor/build/cmd/32/insertcaptiondialog.png"
   inkscape:export-xdpi="95"
   inkscape:export-ydpi="95"
   inkscape:version="0.92.4 (5da689c313, 2019-01-14)">
  <metadata
     id="metadata12">
    <rdf:RDF>
      <cc:Work
         rdf:about="">
        <dc:format>image/svg+xml</dc:format>
        <dc:type
           rdf:resource="http://purl.org/dc/dcmitype/StillImage" />
      </cc:Work>
    </rdf:RDF>
  </metadata>
  <defs
     id="defs10" />
  <sodipodi:namedview
     pagecolor="#ffffff"
     bordercolor="#666666"
     borderopacity="1"
     objecttolerance="10"
     gridtolerance="10"
     guidetolerance="10"
     inkscape:pageopacity="0"
     inkscape:pageshadow="2"
     inkscape:window-width="1920"
     inkscape:window-height="1011"
     id="namedview8"
     showgrid="true"
     inkscape:zoom="22.627417"
     inkscape:cx="19.226685"
     inkscape:cy="15.503239"
     inkscape:window-x="0"
     inkscape:window-y="32"
     inkscape:window-maximized="1"
     inkscape:current-layer="svg6">
    <inkscape:grid
       type="xygrid"
       id="grid822" />
  </sodipodi:namedview>
  <path
     d="m 25.999979,5 -2.58e-4,15 c -10e-6,0.59239 -0.0626,1.00572 -0.16019,1.26562 -0.0976,0.25991 -0.20138,0.37147 -0.38482,0.47266 C 25.088701,21.9402 24.257971,21.98529 22.99926,22 H 9.009979 9.003979 C 7.745159,21.9848 6.914559,21.9401 6.548529,21.73828 6.365079,21.63712 6.261259,21.52542 6.163709,21.26562 6.066109,21.00583 6.0036572,20.59239 6.003519,20 L 6.000019,5 h -1 l 0.0038,15 c 1.666e-4,0.65761 0.0599,1.17858 0.22464,1.61719 0.16471,0.43861 0.46161,0.78852 0.838019,0.99609 0.752839,0.41514 1.6738,0.37165 2.932089,0.38672 h 0.002 14.000822 0.004 c 1.25838,-0.0145 2.17922,0.0306 2.93209,-0.38477 0.37642,-0.20766 0.67333,-0.55938 0.83801,-0.99804 C 26.940031,21.17852 26.999981,20.65761 26.999981,20 l -10e-7,-15 z"
     id="path2732-8-9-9"
     style="color:#000000;font-style:normal;font-variant:normal;font-weight:normal;font-stretch:normal;font-size:medium;line-height:normal;font-family:sans-serif;font-variant-ligatures:normal;font-variant-position:normal;font-variant-caps:normal;font-variant-numeric:normal;font-variant-alternates:normal;font-feature-settings:normal;text-indent:0;text-align:start;text-decoration:none;text-decoration-line:none;text-decoration-style:solid;text-decoration-color:#000000;letter-spacing:normal;word-spacing:normal;text-transform:none;writing-mode:lr-tb;direction:ltr;text-orientation:mixed;dominant-baseline:auto;baseline-shift:baseline;text-anchor:start;white-space:normal;shape-padding:0;clip-rule:nonzero;display:inline;overflow:visible;visibility:visible;opacity:1;isolation:auto;mix-blend-mode:normal;color-interpolation:sRGB;color-interpolation-filters:linearRGB;solid-color:#000000;solid-opacity:1;vector-effect:none;fill:#232629;fill-opacity:1;fill-rule:nonzero;stroke:none;stroke-width:1.00007653;stroke-linecap:butt;stroke-linejoin:miter;stroke-miterlimit:4;stroke-dasharray:none;stroke-dashoffset:0;stroke-opacity:1;marker:none;color-rendering:auto;image-rendering:auto;shape-rendering:auto;text-rendering:auto;enable-background:accumulate"
     inkscape:connector-curvature="0"
     sodipodi:nodetypes="cscccccccsccscsccccccscc" />
  <path
     style="opacity:0.6;fill:#000000;fill-opacity:1;stroke:#000000;stroke-width:2;stroke-linecap:round;stroke-linejoin:round;stroke-miterlimit:4;stroke-dasharray:none;stroke-opacity:1"
     d="m 5,6 h 22 v 15 c 0,1.108 -0.892,2 -2,2 H 7 C 5.892,23 5,22.108 5,21 Z"
     id="rect820"
     inkscape:connector-curvature="0"
     sodipodi:nodetypes="cccsscc" />
  <path
     style="opacity:1;fill:#ffffff;fill-opacity:1;stroke:none;stroke-width:1;stroke-linecap:round;stroke-linejoin:round;stroke-miterlimit:4;stroke-dasharray:none;stroke-opacity:1"
     d="m 5,5 h 22 v 16 c 0,1.108 -0.892,2 -2,2 H 7 C 5.892,23 5,22.108 5,21 Z"
     id="rect818"
     inkscape:connector-curvature="0"
     sodipodi:nodetypes="cccsscc" />
  <rect
     id="rect2"
     overflow="visible"
     y="26"
     x="6"
     width="20"
     style="color:#bebebe;overflow:visible;fill:#1a7fd4;fill-opacity:1;stroke-width:1.82574177;marker:none"
     height="2" />
  <circle
     style="opacity:1;vector-effect:none;fill:#46a926;fill-opacity:1;stroke:none;stroke-width:4.49999952;stroke-linecap:butt;stroke-linejoin:round;stroke-miterlimit:4;stroke-dasharray:none;stroke-dashoffset:0;stroke-opacity:1"
     id="path2644"
     cy="6.5"
     cx="25.5"
     r="4.5" />
  <path
     inkscape:connector-curvature="0"
     id="path1063"
     overflow="visible"
     font-weight="400"
     style="color:#000000;font-weight:400;line-height:normal;font-family:sans-serif;text-indent:0;text-align:start;text-decoration:none;text-decoration-line:none;text-decoration-style:solid;text-decoration-color:#000000;text-transform:none;white-space:normal;overflow:visible;isolation:auto;mix-blend-mode:normal;fill:#ffffff;fill-opacity:1;marker:none"
     d="M 25,4 V 6 H 22.999999 V 7 H 25 v 2 h 1 V 7 h 2 V 6 H 26 V 4 Z" />
</svg>

<svg xmlns="http://www.w3.org/2000/svg" viewBox="0 0 32 32"><path d="M26 5v15c0 .592-.063 1.006-.16 1.266-.098.26-.202.371-.385.472-.366.202-1.197.247-2.456.262H9.004c-1.259-.015-2.09-.06-2.455-.262-.184-.1-.288-.213-.385-.472-.098-.26-.16-.674-.16-1.266L6 5H5l.004 15c0 .658.06 1.179.224 1.617.165.439.462.789.838.996.753.415 1.674.372 2.933.387h14.006c1.259-.015 2.18.03 2.932-.385a1.88 1.88 0 00.838-.998c.165-.438.225-.96.225-1.617V5z" style="line-height:normal;font-variant-ligatures:normal;font-variant-position:normal;font-variant-caps:normal;font-variant-numeric:normal;font-variant-alternates:normal;font-feature-settings:normal;text-indent:0;text-align:start;text-decoration-line:none;text-decoration-style:solid;text-decoration-color:#000;text-transform:none;text-orientation:mixed;white-space:normal;shape-padding:0;isolation:auto;mix-blend-mode:normal;solid-color:#000;solid-opacity:1;marker:none" color="#000" font-weight="400" font-family="sans-serif" overflow="visible" fill="#232629"/><path d="M5 6h22v15c0 1.108-.892 2-2 2H7c-1.108 0-2-.892-2-2z" opacity=".6" stroke="#000" stroke-width="2" stroke-linecap="round" stroke-linejoin="round"/><path d="M5 5h22v16c0 1.108-.892 2-2 2H7c-1.108 0-2-.892-2-2z" fill="#fff"/><path overflow="visible" style="marker:none" color="#bebebe" fill="#1a7fd4" d="M6 26h20v2H6z"/><circle cy="6.5" cx="25.5" r="4.5" fill="#46a926"/><path overflow="visible" font-weight="400" style="line-height:normal;text-indent:0;text-align:start;text-decoration-line:none;text-decoration-style:solid;text-decoration-color:#000;text-transform:none;white-space:normal;isolation:auto;mix-blend-mode:normal;marker:none" d="M25 4v2h-2v1h2v2h1V7h2V6h-2V4z" color="#000" font-family="sans-serif" fill="#fff"/></svg>
